X: 2
T: The Leitrim Fancy
R: jig
M: 6/8
L: 1/8
K: Dmaj
GBG FAF|EDB BAB|~G3 FAF|DFA AFD|~G3 FAF|EDB BAB|GAB dBG|ABG FED:|GAB dBd|edB dBA|GAB dBG|ABG FED|GAB dBd|edB def|gfe dBG|ABG FED:|


Tune 467	Setting 25332

